icons/virus.svg

<svg width="24" height="24" viewBox="0 0 24 24" fill="none" xmlns="http://www.w3.org/2000/svg">
<path fill-rule="evenodd" clip-rule="evenodd" d="M10 3C10 2.44772 10.4477 2 11 2H13C13.5523 2 14 2.44772 14 3C14 3.55228 13.5523 4 13 4V6.08296C13.9117 6.23591 14.7536 6.59444 15.4765 7.10925L16.9497 5.63604C16.5592 5.24551 16.5592 4.61235 16.9497 4.22183C17.3403 3.8313 17.9734 3.8313 18.364 4.22183L19.7782 5.63604C20.1687 6.02656 20.1687 6.65973 19.7782 7.05025C19.3876 7.44078 18.7545 7.44078 18.364 7.05025L16.8907 8.52347C17.4056 9.2464 17.7641 10.0883 17.917 11H20C20 10.4477 20.4477 10 21 10C21.5523 10 22 10.4477 22 11V13C22 13.5523 21.5523 14 21 14C20.4477 14 20 13.5523 20 13H17.917C17.7641 13.9117 17.4056 14.7536 16.8907 15.4765L18.364 16.9497C18.7545 16.5592 19.3876 16.5592 19.7782 16.9497C20.1687 17.3403 20.1687 17.9734 19.7782 18.364L18.364 19.7782C17.9734 20.1687 17.3403 20.1687 16.9497 19.7782C16.5592 19.3876 16.5592 18.7545 16.9497 18.364L15.4765 16.8907C14.7536 17.4056 13.9117 17.7641 13 17.917V20C13.5523 20 14 20.4477 14 21C14 21.5523 13.5523 22 13 22H11C10.4477 22 10 21.5523 10 21C10 20.4477 10.4477 20 11 20V17.917C10.0883 17.7641 9.2464 17.4056 8.52347 16.8907L7.05025 18.364C7.44078 18.7545 7.44078 19.3876 7.05025 19.7782C6.65973 20.1687 6.02656 20.1687 5.63604 19.7782L4.22183 18.364C3.8313 17.9734 3.8313 17.3403 4.22183 16.9497C4.61235 16.5592 5.24551 16.5592 5.63604 16.9497L7.10925 15.4765C6.59444 14.7536 6.23591 13.9117 6.08296 13H4C4 13.5523 3.55228 14 3 14C2.44772 14 2 13.5523 2 13V11C2 10.4477 2.44772 10 3 10C3.55228 10 4 10.4477 4 11H6.08296C6.23591 10.0883 6.59444 9.2464 7.10925 8.52347L5.63604 7.05025C5.24551 7.44078 4.61235 7.44078 4.22183 7.05025C3.8313 6.65973 3.8313 6.02656 4.22183 5.63604L4.92864 4.92923L5.63604 4.22183C6.02656 3.8313 6.65973 3.8313 7.05025 4.22183C7.44078 4.61235 7.44078 5.24551 7.05025 5.63604L8.52347 7.10925C9.2464 6.59444 10.0883 6.23591 11 6.08296V4C10.4477 4 10 3.55228 10 3ZM12 8C9.79086 8 8 9.79086 8 12C8 14.2091 9.79086 16 12 16C14.2091 16 16 14.2091 16 12C16 9.79086 14.2091 8 12 8Z" fill="black"/>
</svg>

<svg
  width="24"
  height="24"
  viewBox="0 0 24 24"
  xmlns="http://www.w3.org/2000/svg"
>
  <path
    fill-rule="evenodd"
    clip-rule="evenodd"
    d="M10 3a1 1 0 0 1 1-1h2a1 1 0 1 1 0 2v2.083a5.967 5.967 0 0 1 2.476 1.026l1.474-1.473a1 1 0 0 1 1.414-1.414l1.414 1.414a1 1 0 0 1-1.414 1.414l-1.473 1.473A5.966 5.966 0 0 1 17.917 11H20a1 1 0 1 1 2 0v2a1 1 0 1 1-2 0h-2.083a5.966 5.966 0 0 1-1.026 2.476l1.473 1.474a1 1 0 0 1 1.414 1.414l-1.414 1.414a1 1 0 0 1-1.414-1.414l-1.473-1.473A5.966 5.966 0 0 1 13 17.917V20a1 1 0 1 1 0 2h-2a1 1 0 1 1 0-2v-2.083a5.966 5.966 0 0 1-2.477-1.026L7.05 18.364a1 1 0 1 1-1.414 1.414l-1.414-1.414a1 1 0 0 1 1.414-1.414l1.473-1.473A5.967 5.967 0 0 1 6.083 13H4a1 1 0 1 1-2 0v-2a1 1 0 1 1 2 0h2.083a5.968 5.968 0 0 1 1.026-2.477L5.636 7.05a1 1 0 1 1-1.414-1.414l.707-.707.707-.707A1 1 0 1 1 7.05 5.636l1.473 1.473A5.968 5.968 0 0 1 11 6.083V4a1 1 0 0 1-1-1zm2 5a4 4 0 1 0 0 8 4 4 0 0 0 0-8z"
  />
</svg>
